X:1
T:Title
%%score { 1 | 2 }
L:1/8
M:3/4
K:G
V:1 treble nm="Grand Piano"
V:2 bass 
V:1
 z2 z2[Q:1/4=90] E>^D | E3 E E>E | =F2 F2 F>A | G3 F G>c |[M:2/4] B4 |[M:1/4] A>G | %6
[M:3/4] c3 [EG] [EG]>[EA] | B2 D2 c>B | A3 D B>A |[M:2/4] G4 |[M:1/4] G>G |[M:3/4] d3 B A>G | %12
 [Ec]2 [CEG]2 G>G | d3 B c>d |[M:2/4] [Ge]4 |[M:1/4] [^Ge]>[Gd] |[M:3/4] [Ac]3 [^GB] [Bd]>[Ac] | %17
 [GB]2 A2 A>F | G3 e d>G |[M:2/4] [Ec]4 |] %20
V:2
 z2 z2 [C,G,C]>[C,F,C] | [C,G,C]3 [C,G,C] [C,G,C]>[E,G,C] | %2
 [D,G,B,]2 [D,G,B,]2 [D,G,B,]>[=F,G,B,] | [E,G,C]3 [^D,A,C] [E,G,C]>[E,G,C] |[M:2/4] [=F,G,D]4 | %5
[M:1/4] [=F,G,B,]>[F,G,B,] |[M:3/4] [E,G,C]3 [C,C] [C,C]>[C,C] | %7
 [D,G,D]2 [D,G,B,]2 [D,F,E]>[D,G,D] | [D,F,C]3 [D,F,] [D,G,D]>[D,F,C] |[M:2/4] [G,B,]4 | %10
[M:1/4] G,>[K:treble][G,A,=F] |[M:3/4] [G,B,=F]3 [G,DF] [G,CF]>[G,B,F] | %12
 [C,G,]2 C,2 G,>[K:treble][G,A,=F] | [G,C=F]3 [G,DF] [G,CE]>[G,B,F] |[M:2/4][K:bass] [C,C]4 | %15
[M:1/4] [E,B,]>[E,B,] |[M:3/4] [=F,A,]3 [F,B,] [F,B,]>[F,C] | %17
 [=F,C]2[K:treble] [F,C=F]2 [F,CF]>[A,C^D] | [G,CE]3 [G,CG] [G,B,=F]>[G,B,F] | %19
[M:2/4][K:bass] [C,C]4 |] %20

